!!!SOCIAL_FUNCTION:	council songs
!!!PDT:	1918

Specific Region: Dakotas, Minnesota, Montana, Nebraska
!!!REG: Dakotas and Montana
!!!LING_GROUP: Siouan
!!!LANG: Tone
!!!OTL@ENG: I Sing of the Dead Chiefs
!!!ONM: No. 184
**kern
*Imale
*clefF4
*k[f#]
*M2/4
*MM63
4d
4d
=2
4d
4d
=3||
*M3/4
8A
8d
8d
8B
8B
16.d
32B
=4||
*M2/4
4A
8A
16.G
32B
=5
16B
[8.A
8A]
16B
16A
=6
4G
8G
16G
16G
=7
2G
=8
8D
8A
8A
8G
=9
8G
8G
8A
16G
32G
32G
=10
4D
8D
8D
=11
2D
=12
2D
=13
8G
8A
4A
=14||
*M3/4
8d
8B
(16B
8.A)
8A
16.G
32B
=15||
*M2/4
(8.B
16A)
8B
8A
=16||
*M3/4
8A
8B
16A
8.G
8G
8G
=17
2.G
=18||
*M2/4
8D
8A
8A
8G
=19
8G
8A
16A
8.G
=20
8G
8D
8D
8D
=21
2D
=22
4D
4r
==
*-
!!!CNT: Native American -- Sioux
!!!MRD: 1911/07//-1914///
!!!OCL: Frances Densmore
!!!YOR1: Teton Sioux Music, Bulletin 61,
!!!YOR2: Bureau of American Ethnology, Smithsonian Institution
!!!PPR: Government Printing Office
!!!PPP: Washington, D.C.
!!!PDT: 1918///
!!!ENC: Craig Stuart Sapp
!!!END: 2002/03/25/
!!!EEV: 2002/03/31/
!!!AGN: Council Song
!!!MPN@@SIO: Wopo'-tapi
!!!MPN@ENG: Many Wounds
!!!TXO: Teton Sioux
!!!MLC: Standing Rock Reservation, South Dakota, United States of America
!!!ARL: 45.9/-100.7#
!!!catalog: Catalogue No. 669
!!!PPG: 448
!!!EFL: 189/245
!!!VTS: 3309582292
